src/assets/duotone/Driving.svg

<?xml version="1.0" encoding="UTF-8"?>
<svg width="24" height="24" viewBox="0 0 24 24" xmlns="http://www.w3.org/2000/svg">
 <path d="m12 18.75c-0.41 0-0.75-0.34-0.75-0.75v-1c0-0.41 0.34-0.75 0.75-0.75s0.75 0.34 0.75 0.75v1c0 0.41-0.34 0.75-0.75 0.75z"/>
 <path d="m12 22.75c-0.41 0-0.75-0.34-0.75-0.75v-1c0-0.41 0.34-0.75 0.75-0.75s0.75 0.34 0.75 0.75v1c0 0.41-0.34 0.75-0.75 0.75z"/>
 <path d="m2.0001 22.75c-0.06 0-0.11999-0.01-0.17999-0.02-0.4-0.1-0.65-0.51-0.55-0.91l1-4c0.1-0.4 0.49999-0.65 0.90999-0.55 0.4 0.1 0.65 0.51 0.55 0.91l-1 4c-0.09 0.34-0.39 0.57-0.73 0.57z"/>
 <path d="m22 22.75c-0.34 0-0.64-0.23-0.73-0.57l-1-4c-0.1-0.4 0.14-0.81 0.55-0.91 0.4-0.1 0.81 0.14 0.91 0.55l1 4c0.1 0.4-0.14 0.81-0.55 0.91-0.06 0.01-0.12 0.02-0.18 0.02z"/>
 <path d="m19.26 9.5198c-0.11-1.18-0.42-2.43-2.71-2.43h-9.1c-2.29 0-2.6 1.26-2.71 2.43l-0.4 4.34c-0.05 0.54 0.13 1.08 0.5 1.49 0.38 0.41 0.92001 0.65 1.48 0.65h1.34c1.15 0 1.37-0.66 1.52-1.1l0.14002-0.43c0.16-0.49 0.19999-0.61 0.84995-0.61h3.65c0.64 0 0.66 0.07 0.85 0.61l0.14 0.43c0.15 0.44 0.37 1.1 1.52 1.1h1.34c0.56 0 1.1-0.24 1.48-0.65 0.37-0.4 0.55-0.95 0.5-1.49l-0.39-4.34z" opacity=".4"/>
 <path d="m18.42 4.94h-0.71-0.01l-0.27-1.29c-0.26-1.25-0.79-2.4-2.92-2.4h-5.01c-2.13 0-2.66 1.15-2.92 2.4l-0.27 1.29h-0.01-0.71c-0.3 0-0.54 0.23998-0.54 0.53998s0.24 0.54004 0.54 0.54004h0.51001l-0.30001 1.43c0.39-0.22 0.92001-0.35998 1.66-0.35998h9.1c0.74 0 1.28 0.13998 1.66 0.35998l-0.3-1.43h0.51c0.3 0 0.54-0.24004 0.54-0.54004-0.01-0.3-0.25-0.53998-0.55-0.53998z"/>
 <path d="m9.8602 11.01h-2.14c-0.3 0-0.54-0.24-0.54-0.54s0.24-0.54002 0.54-0.54002h2.14c0.30002 0 0.54002 0.24002 0.54002 0.54002-0.01 0.3-0.25 0.54-0.54002 0.54z"/>
 <path d="m16.28 11.01h-2.14c-0.3 0-0.54-0.24-0.54-0.54s0.24-0.54002 0.54-0.54002h2.14c0.3 0 0.54 0.24002 0.54 0.54002s-0.24 0.54-0.54 0.54z"/>
</svg>

<svg width="24" height="24" viewBox="0 0 24 24"  xmlns="http://www.w3.org/2000/svg">
<path d="M12 18.75C11.59 18.75 11.25 18.41 11.25 18V17C11.25 16.59 11.59 16.25 12 16.25C12.41 16.25 12.75 16.59 12.75 17V18C12.75 18.41 12.41 18.75 12 18.75Z" />
<path d="M12 22.75C11.59 22.75 11.25 22.41 11.25 22V21C11.25 20.59 11.59 20.25 12 20.25C12.41 20.25 12.75 20.59 12.75 21V22C12.75 22.41 12.41 22.75 12 22.75Z" />
<path d="M2.00009 22.7501C1.94009 22.7501 1.8801 22.7401 1.8201 22.7301C1.4201 22.6301 1.1701 22.2201 1.2701 21.8201L2.2701 17.8201C2.3701 17.4201 2.77009 17.1701 3.18009 17.2701C3.58009 17.3701 3.83009 17.7801 3.73009 18.1801L2.73009 22.1801C2.64009 22.5201 2.34009 22.7501 2.00009 22.7501Z" />
<path d="M22.0002 22.7502C21.6602 22.7502 21.3602 22.5202 21.2702 22.1802L20.2702 18.1802C20.1702 17.7802 20.4102 17.3702 20.8202 17.2702C21.2202 17.1702 21.6302 17.4102 21.7302 17.8202L22.7302 21.8202C22.8302 22.2202 22.5902 22.6302 22.1802 22.7302C22.1202 22.7402 22.0602 22.7502 22.0002 22.7502Z" />
<path opacity="0.4" d="M19.2602 9.51984C19.1502 8.33984 18.8402 7.08984 16.5502 7.08984H7.45024C5.16024 7.08984 4.85024 8.34984 4.74024 9.51984L4.34024 13.8598C4.29024 14.3998 4.47024 14.9398 4.84024 15.3498C5.22024 15.7598 5.76025 15.9998 6.32025 15.9998H7.66024C8.81024 15.9998 9.03023 15.3398 9.18023 14.8998L9.32025 14.4698C9.48025 13.9798 9.52024 13.8598 10.1702 13.8598H13.8202C14.4602 13.8598 14.4802 13.9298 14.6702 14.4698L14.8102 14.8998C14.9602 15.3398 15.1802 15.9998 16.3302 15.9998H17.6702C18.2302 15.9998 18.7702 15.7598 19.1502 15.3498C19.5202 14.9498 19.7002 14.3998 19.6502 13.8598L19.2602 9.51984Z" />
<path d="M18.4203 4.94H17.7103C17.7003 4.94 17.7003 4.94 17.7003 4.94L17.4303 3.65002C17.1703 2.40002 16.6403 1.25 14.5103 1.25H12.5403H11.4703H9.50029C7.37029 1.25 6.84029 2.40002 6.58029 3.65002L6.31029 4.94C6.30029 4.94 6.30029 4.94 6.30029 4.94H5.59029C5.29029 4.94 5.05029 5.17998 5.05029 5.47998C5.05029 5.77998 5.29029 6.02002 5.59029 6.02002H6.1003L5.80029 7.45001C6.19029 7.23001 6.7203 7.09003 7.4603 7.09003H16.5603C17.3003 7.09003 17.8403 7.23001 18.2203 7.45001L17.9203 6.02002H18.4303C18.7303 6.02002 18.9703 5.77998 18.9703 5.47998C18.9603 5.17998 18.7203 4.94 18.4203 4.94Z" />
<path d="M9.86018 11.0102H7.72018C7.42018 11.0102 7.18018 10.7702 7.18018 10.4702C7.18018 10.1702 7.42018 9.93018 7.72018 9.93018H9.86018C10.1602 9.93018 10.4002 10.1702 10.4002 10.4702C10.3902 10.7702 10.1502 11.0102 9.86018 11.0102Z" />
<path d="M16.2801 11.0102H14.1401C13.8401 11.0102 13.6001 10.7702 13.6001 10.4702C13.6001 10.1702 13.8401 9.93018 14.1401 9.93018H16.2801C16.5801 9.93018 16.8201 10.1702 16.8201 10.4702C16.8201 10.7702 16.5801 11.0102 16.2801 11.0102Z" />
</svg>
